dist/svgs/outdent.svg

<svg xmlns="http://www.w3.org/2000/svg" viewBox="0 0 512 512"><path d="M292 387H0v-55h292v55zm220 103H0v-55h512v55zm0-324v194l-130-97 130-97zm0-144v55H0V22h512zM292 283H0v-55h292v55zm0-103H0v-55h292v55z"/></svg>

<?xml version="1.0" encoding="UTF-8" standalone="no"?><svg   xmlns:svg="http://www.w3.org/2000/svg"   xmlns="http://www.w3.org/2000/svg"   version="1.1"   width="512"   height="512"   viewBox="0 0 512 512">  <path     d="M292 387H0V332H292V387V387zM512 490H0V435H512V490V490zM512 166V360L382 263L512 166V166zM512 22V77H0V22H512V22zM292 283H0V228H292V283V283zM292 180H0V125H292V180V180z"     id="outdent" /></svg>
